!!!COM: Berg, Alban (Maria Johannes)
!!!OTL: Kammerkonzert (Chamber Concerto) for Piano, Violin and Thirteen Wind Instruments
!!!OMV: III: Rondo Ritmico con Introduzione (Rhythmic Rondo with Introduction)
!!!example: 447
!!!work: Ber-11
**kern	**kern	**dynam	**kern	**dynam	**kern	**dynam	**kern	**dynam	**kern	**dynam	**kern	**dynam	**kern	**dynam	**kern	**dynam	**kern	**dynam
*part9	*part9	*part9	*part8	*part8	*part7	*part7	*part6	*part6	*part5	*part5	*part4	*part4	*part3	*part3	*part2	*part2	*part1	*part1
*staff10	*staff9	*	*staff8	*	*staff7	*	*staff6	*	*staff5	*	*staff4	*	*staff3	*	*staff2	*	*staff1	*
*I"Piano	*	*	*I"Violin	*	*I"Bassoon	*	*I"Bass Clarinet in Bb	*	*I"Clarinet in A	*	*I"English Horn	*	*I"Oboe	*	*I"Flute	*	*I"Piccolo	*
*I'Pno.	*	*	*I'Vln.	*	*I'Bsn.	*	*I'B. Cl.	*	*I'Cl.	*	*I'Eng. Hn.	*	*I'Ob.	*	*I'Fl.	*	*I'Picc.	*
*clefF4	*clefG2	*	*clefG2	*	*clefF4	*	*clefG2	*	*clefG2	*	*clefG2	*	*clefG2	*	*clefG2	*	*clefG2	*
*k[]	*k[]	*	*k[]	*	*k[]	*	*k[]	*	*k[]	*	*k[]	*	*k[]	*	*k[]	*	*k[]	*
*	*	*	*	*	*	*	*	*	*	*	*	*	*	*	*	*	*	*
*M3/8	*M3/8	*	*M3/8	*	*M3/8	*	*M3/8	*	*M3/8	*	*M3/8	*	*M3/8	*	*M3/8	*	*M3/8	*
*MM90	*MM90	*	*MM90	*	*MM90	*	*MM90	*	*MM90	*	*MM90	*	*MM90	*	*MM90	*	*MM90	*
=583	=583	=583	=583	=583	=583	=583	=583	=583	=583	=583	=583	=583	=583	=583	=583	=583	=583	=583
8qGG/ 8qE-X	.	.	.	.	.	.	.	.	.	.	.	.	.	.	.	.	.	.
[8AnL	8cn^L	.	8r	.	8r	.	4.r	.	4.r	.	4.r	.	4.r	.	8r	.	4.r	.
.	.	.	8qdn/ 8qfn	< pp	.	.	.	.	.	.	.	.	.	.	.	.	.	.
16An^K] 16c#X	8en^	.	(8ffnL 8fffn	.	8r	.	.	.	.	.	.	.	.	.	8r	.	.	.
[8.d^J	.	.	.	.	.	.	.	.	.	.	.	.	.	.	.	.	.	.
.	.	.	8qd#X/ 8qf#X	.	.	.	.	.	.	.	.	.	.	.	.	.	.	.
.	[8fn^J	.	[8ff#XJ [8fff#X	[[	[8GG^^	p	.	.	.	.	.	.	.	.	16r	.	.	.
.	.	.	.	.	.	.	.	.	.	.	.	.	.	.	(16ee-X	p	.	.
=584	=584	=584	=584	=584	=584	=584	=584	=584	=584	=584	=584	=584	=584	=584	=584	=584	=584	=584
8dL]	16.fLL]	.	8ff#]) 8fff#]	>	8.GGL]	.	(4fn'~	p	4.r	.	4r	.	(4a#X'~	p	16eenLL	.	4.r	.
.	.	.	.	.	.	.	.	.	.	.	.	.	.	.	16ggn	.	.	.
.	[32en^JJk	.	.	.	.	.	.	.	.	.	.	.	.	.	.	.	.	.
[8c#X^	4e]	.	4ffn [4fffn	] pp	.	.	.	.	.	.	.	.	.	.	16bbn	.	.	.
.	.	.	.	.	8.A-X^^J	.	.	.	.	.	.	.	.	.	16ddd#X	.	.	.
16.c#L]	.	.	.	.	.	.	16B--')	.	.	.	16Fn'	p	16dn')	.	16eeen	.	.	.
.	.	.	.	.	.	.	16r	.	.	.	16r	.	16r	.	16cccnJJ)	.	.	.
[32dnJJk	.	.	.	.	.	.	.	.	.	.	.	.	.	.	.	.	.	.
=585	=585	=585	=585	=585	=585	=585	=585	=585	=585	=585	=585	=585	=585	=585	=585	=585	=585	=585
32.dKLL]	[8en^L	.	8fffnL]	.	4.r	.	4.r	.	4.r	.	4.r	.	4.r	.	4.r	.	8r	.
16c#X^J	.	.	.	.	.	.	.	.	.	.	.	.	.	.	.	.	.	.
[8dn^	.	.	.	.	.	.	.	.	.	.	.	.	.	.	.	.	.	.
*	*	*	*	*	*	*	*	*	*	*	*	*	*	*	*	*	*8va	*
.	16.eL]	.	8fff#XJ	.	.	.	.	.	.	.	.	.	.	.	.	.	(16eeeenLL	pp
.	.	.	.	.	.	.	.	.	.	.	.	.	.	.	.	.	16ccccnJJ)	.
.	32fn^Jk	.	.	.	.	.	.	.	.	.	.	.	.	.	.	.	.	.
16.dL_	.	.	.	.	.	.	.	.	.	.	.	.	.	.	.	.	.	.
.	[8en^J	.	8r	.	.	.	.	.	.	.	.	.	.	.	.	.	8r	.
64dkL]	.	.	.	.	.	.	.	.	.	.	.	.	.	.	.	.	.	.
32cn^JJJ	.	.	.	.	.	.	.	.	.	.	.	.	.	.	.	.	.	.
=586	=586	=586	=586	=586	=586	=586	=586	=586	=586	=586	=586	=586	=586	=586	=586	=586	=586	=586
*	*	*	*8va	*	*	*	*	*	*	*	*	*	*	*	*	*	*	*
8.c#X^L	16.eLL]	.	(16fffnLL	< pp	8r	.	4.r	.	4.r	.	8r	.	8r	.	4.r	.	16r	.
!	!	!	!	!	!	!	!	!	!	!	!	!	!	!	!	!	!LO:TX:b:t=cresc.	!
.	.	.	16fff#X	.	.	.	.	.	.	.	.	.	.	.	.	.	(16eeeenLL	.
.	32B-X^Jk	mf	.	.	.	.	.	.	.	.	.	.	.	.	.	.	.	.
.	[8a-X^	.	16gggn	.	16r	.	.	.	.	.	8r	.	8r	.	.	.	16ccccnJJ)	.
*clefG2	*	*	*	*	*	*	*	*	*	*	*	*	*	*	*	*	*	*
16cn^k	.	.	16bbbn	.	(8Gn^^L	p	.	.	.	.	.	.	.	.	.	.	16r	.
8f#X^J 8b#X	16.a-L]	.	16dddd#X	.	.	.	.	.	.	.	(8Gn'~	p	(8a#X'~	p	.	.	16r	.
.	.	.	16eeeenJJ)	[	16a-X^^Jk)	.	.	.	.	.	.	.	.	.	.	.	[16ggggn	.
.	32B-X^JJk	.	.	.	.	.	.	.	.	.	.	.	.	.	.	.	.	.
=587	=587	=587	=587	=587	=587	=587	=587	=587	=587	=587	=587	=587	=587	=587	=587	=587	=587	=587
16.f#XLL 16.bn	[8.a-X^L	.	(16ccccnLL	>	4.r	.	4.r	.	4.r	.	8A-X'~)	.	8ddn'~)	.	4.r	.	16eeee-X	.
.	.	.	16aaan')	.	.	.	.	.	.	.	.	.	.	.	.	.	16r	.
32Bn^JJk	.	.	.	.	.	.	.	.	.	.	.	.	.	.	.	.	.	.
[4gn^ [4ccn	.	>]	16fffn'	.	.	.	.	.	.	.	8r	.	8r	.	.	.	(16aaaa#XLL	.
*	*	*	*X8va	*	*	*	*	*	*	*	*	*	*	*	*	*	*	*
.	32a-LL]	.	16dd-X'	.	.	.	.	.	.	.	.	.	.	.	.	.	16ffff#X	.
.	32B-X^JJ	.	.	.	.	.	.	.	.	.	.	.	.	.	.	.	.	.
.	8a-X^J	>	16bb-X'	.	.	.	.	.	.	.	8r	.	8r	.	.	.	16ddddnJJ)	.
.	.	.	16gg-X'JJ	]]	.	.	.	.	.	.	.	.	.	.	.	.	16r	.
=588	=588	=588	=588	=588	=588	=588	=588	=588	=588	=588	=588	=588	=588	=588	=588	=588	=588	=588
16.gnLL] 16.ccn]	(16.B-XLL	] p	16ddn'LL	<	4.r	.	4.r	.	4.r	.	8r	.	8r	.	16r	.	(16ddddd-XKL	f
.	.	.	16bn'	.	.	.	.	.	.	.	.	.	.	.	(8.gn^^L	p	8bbbb-X)	.
(32Bnk	32a-Xk)	.	.	.	.	.	.	.	.	.	.	.	.	.	.	.	.	.
!	!LO:TX:b:t=dim.	!	!	!	!	!	!	!	!	!	!	!	!	!	!	!	!	!
16.g) 16.cc	(16.B-	.	16g#X'	.	.	.	.	.	.	.	8.en'~L	< pp	8.dddn'~L	< pp	.	.	.	.
*	*	*	*	*	*	*	*	*	*	*	*	*	*	*	*	*	*X8va	*
.	.	.	16en'	.	.	.	.	.	.	.	.	.	.	.	.	.	(16ggg-XL	.
(32Bk	32a-k)	.	.	.	.	.	.	.	.	.	.	.	.	.	.	.	.	.
16.g) 16.cc	(16.B-	.	16c#X'	.	.	.	.	.	.	.	.	.	.	.	[8aa-X^^J	.	16eeee-X	.
.	.	.	16B-X'JJ	[[	.	.	.	.	.	.	16gn'~Jk	[	16ee-X'~Jk	[	.	.	[16ccccnJJ	.
(32BJJk	32a-JJk)	.	.	.	.	.	.	.	.	.	.	.	.	.	.	.	.	.
=589	=589	=589	=589	=589	=589	=589	=589	=589	=589	=589	=589	=589	=589	=589	=589	=589	=589	=589
16.gLL) 16.cc	(16.B-XLL	.	[4.Gn	> fp ]]	4.r	.	4.r	.	4.r	.	(8gnL	.	(8eenL	.	16aa-LL]	.	16ccccKL])	.
.	.	.	.	.	.	.	.	.	.	.	.	.	.	.	16aan'JJ)	.	(8aaan	.
((32Bk	32a-Xk)	.	.	.	.	.	.	.	.	.	.	.	.	.	.	.	.	.
16g) 16cc	((16B-	.	.	.	.	.	.	.	.	.	8g-X^)	<	8dd-X^)	<	8r	.	.	.
16B-X' 16en	16gn') 16ccn	p	.	.	.	.	.	.	.	.	.	.	.	.	.	.	[16fffnL	fp
16B-' 16e	16g' 16cc	.	.	.	.	.	.	.	.	.	16fn^L	.	8ddn^J	[ fp	8r	.	16fffJJ])	.
16B-'JJ 16e	16g'JJ 16cc	.	.	.	.	.	.	.	.	.	[16en^JJ	[ fp	.	.	.	.	16r	.
=590	=590	=590	=590	=590	=590	=590	=590	=590	=590	=590	=590	=590	=590	=590	=590	=590	=590	=590
16B-X'LL 16en	16g'LL 16cc	.	4.r	.	4.r	.	4.r	.	8r	.	16eKL]	.	8g#XL	fp	4.r	.	4.r	.
16B-'JJ 16e	16g'JJ 16cc	.	.	.	.	.	.	.	.	.	8An^	fp	.	.	.	.	.	.
!	!	!	!	!	!	!	!	!	!LO:TX:a:t=mfpp	!	!	!	!	!	!	!	!	!
[4B-~) [4e	[4g'~) [4cc	.	.	.	.	.	.	.	8A#X^	mp	.	.	8c#X^J	fp	.	.	.	.
.	.	.	.	.	.	.	.	.	.	.	16E^Jk	.	.	.	.	.	.	.
.	.	.	.	.	.	.	.	.	8r	.	8r	.	8r	.	.	.	.	.
=	=	=	=	=	=	=	=	=	=	=	=	=	=	=	=	=	=	=
*-	*-	*-	*-	*-	*-	*-	*-	*-	*-	*-	*-	*-	*-	*-	*-	*-	*-	*-
!!!system-decoration: [(s1,s2,s3,s4,s5,s6,s7)]s8{(s9,s10)}
!!!CDT: 1885/02/09-1935/12/24
!!!CBL: Vienna, Austria
!!!CDL: Vienna, Austria
!!!CNT: Austrian
!!!AGN: Orchestral; Concerto
!!!MCN: Scherchen, Hermann
!!!MDT: 1927/03/27
!!!MGN: unknown
!!!MLC: Berlin, Germany
!!!MPD: 1927
!!!MPN:
!!!ODT: 1925
!!!PDT: 1925
!!!excerpt-start-measure: 583
!!!excerpt-end-measure: 590
!!!excerpt-start-time: 3:49
!!!excerpt-end-time: 3:59
!!!EEV: 2020/01/27
!!!ONB: Converted from MusicXML on 2020/01/27
